!!!!SEGMENT: pl-wumfc--r282--003-009_paderewski-ignacy-jan--exercises-3-exercise-9.krn
!!!cenid: 18xx:3204
!!!COM: Paderewski, Ignacy Jan
!!!COM-rismid: pe30029943
!!!CDT: 1860/11/18-1941/06/29
!!!CNT: Polish
!!!GTL: [Exercises 3]
!!!OTL: [Exercise] 9
!!!OMV: 009
!!!PDT:
!!!AGN:
!!!SMS-siglum: PL-Wumfc
!!!SMS-shelfmark: R282
!!!SMS-shelfwork: 003-009 G
!!!SMS-variant:
!!!SMS-altvar:
!!!NIFC-rismid: 1001158933
!!!URL-scan: http://repozytorium.nifc.pl/skany/pl-wumfc--r282
!!!ONB-nifc: UWAGA: druga grupa ćwiczeń od skanu 0011, prawa strona, 3 system. Nr 003 i 004 nienumerowane – skan 0012, lewa strona. Nr 010 nienumerowany – skan 0014, 3 pierwsze systemy
!!!key: F
**kern	**kern
*part2	*part1
*staff2	*staff1
*I"Fortepian	*I"Fortepian
*Ipiano	*Ipiano
*ICklav	*ICklav
*IGsolo	*IGsolo
*clefF4	*clefG2
*k[b-]	*k[b-]
*F:	*F:
*M4/4	*M4/4
*met(c)	*met(c)
=1	=1
*^	*^
*	*	*	*^
!LO:TX:b:t=C.f	!	!	!	!
1A	1FF	4a/	1f	1c
.	.	4b-/	.	.
.	.	4cc/	.	.
.	.	4dd/	.	.
=2	=2	=2	=2	=2
1F	1AA	4cc/	1f	1A
.	.	4dd/	.	.
.	.	4ee/	.	.
.	.	4ff/	.	.
=3	=3	=3	=3	=3
1C	1C	4ee/	1g	1G
.	.	4dd/	.	.
.	.	4cc/	.	.
.	.	4dd/	.	.
=4	=4	=4	=4	=4
1A	1C	4ee/	1e	1c
.	.	4dd/	.	.
.	.	4ee/	.	.
.	.	4cc/	.	.
=5	=5	=5	=5	=5
1B-	1GG	4b-/	1g	1d
.	.	4cc/	.	.
.	.	4dd/	.	.
.	.	4ee/	.	.
=6	=6	=6	=6	=6
1A	1AA	4ff/	1f	1c
.	.	4ee/	.	.
.	.	4ff/	.	.
.	.	4aa/	.	.
=7	=7	=7	=7	=7
1d	1BBn	4gg/	1dd	1G
.	.	4aa/	.	.
.	.	4gg/	.	.
.	.	4ff/	.	.
!!LO:LB:g=original
=8	=8	=8	=8	=8
1G;	1C	1ee;	1cc	1e
=9	=9	=9	=9	=9
1A	1D	4dd/	1a	1e
.	.	4ee/	.	.
.	.	4ff/	.	.
.	.	4gg/	.	.
=10	=10	=10	=10	=10
1c	1C	4aa/	1a	1e
.	.	4gg/	.	.
.	.	4aa/	.	.
.	.	4a/	.	.
=11	=11	=11	=11	=11
1c	1AA	4cc/	1f	1f
.	.	4dd/	.	.
.	.	4ee/	.	.
.	.	4ff/	.	.
=12	=12	=12	=12	=12
1B-	1GG	4gg/	1b-	1d
.	.	4ff/	.	.
.	.	4gg/	.	.
.	.	4dd/	.	.
=13	=13	=13	=13	=13
1d	1FF	4aa/	1a	1d
.	.	4gg/	.	.
.	.	4ff/	.	.
.	.	4ee/	.	.
=14	=14	=14	=14	=14
1c	1AA	4ff/	1f	1f
.	.	4ee/	.	.
.	.	4ff/	.	.
.	.	4cc/	.	.
=15	=15	=15	=15	=15
1G	1GG	4b-/	1b-	1g
.	.	4cc/	.	.
.	.	4dd/	.	.
.	.	4ee/	.	.
!!LO:LB:g=original
=16	=16	=16	=16	=16
1c;	1FF;	1ff;	1a	1a
=17	=17	=17	=17	=17
1B-	1GG	4gg/	1dd	1d
.	.	4aa/	.	.
.	.	4gg/	.	.
.	.	4ff/	.	.
=18	=18	=18	=18	=18
1c	1AA	4ee/	1a	1c
.	.	4dd/	.	.
.	.	4cc/	.	.
.	.	4dd/	.	.
=19	=19	=19	=19	=19
1A	1AA	4ee/	1e	1c
.	.	4ff/	.	.
.	.	4ee/	.	.
.	.	4cc/	.	.
=20	=20	=20	=20	=20
1B-	1GG	4b-/	1g	1d
.	.	4a/	.	.
.	.	4b-/	.	.
.	.	4dd/	.	.
=21	=21	=21	=21	=21
1E	1C	4cc/	1g	1e
.	.	4dd/	.	.
.	.	4cc/	.	.
.	.	4b-/	.	.
=22	=22	=22	=22	=22
1A	1C	4a/	1e	1c
.	.	4bn/	.	.
.	.	4cc/	.	.
.	.	4aa/	.	.
!!LO:LB:g=original
=23	=23	=23	=23	=23
1D	1BBn	4gg/	1g	1d
.	.	4aa/	.	.
.	.	4gg/	.	.
.	.	4ff/	.	.
=24	=24	=24	=24	=24
1E;	1C;	1ee;	1g	1c
=25	=25	=25	=25	=25
1F	1AA	4ff/	1f	1c
.	.	4gg/	.	.
.	.	4ff/	.	.
.	.	4ee/	.	.
=26	=26	=26	=26	=26
1B-	1BB-	4dd/	1f	1d
.	.	4ee/	.	.
.	.	4ff/	.	.
.	.	4gg/	.	.
=27	=27	=27	=27	=27
1F	1AA	4aa/	1cc	1f
.	.	4gg/	.	.
.	.	4aa/	.	.
.	.	4cc/	.	.
=28	=28	=28	=28	=28
1B-	1GG	4dd/	1b-	1d
.	.	4cc/	.	.
.	.	4dd/	.	.
.	.	4ee/	.	.
=29	=29	=29	=29	=29
1c	1FF	4ff/	1a	1a
.	.	4gg/	.	.
.	.	4ff/	.	.
.	.	4cc/	.	.
!!LO:LB:g=original
=30	=30	=30	=30	=30
1G	1GG	4b-/	1b-	1g
.	.	4a/	.	.
.	.	4b-/	.	.
.	.	4dd/	.	.
=31	=31	=31	=31	=31
1F	1EE	4cc/	1g	1c
.	.	4dd/	.	.
.	.	4cc/	.	.
.	.	4b-/	.	.
=32	=32	=32	=32	=32
1F	1FF;	1a;	1a	1c
*v	*v	*	*	*
*	*v	*v	*v
==	==
*-	*-
!!!system-decoration: [(s1,s2)]
!!!AIN: 2 piano
!!!ENC: Filip Voros
!!!END: 2021-11-13
!!!ENC: Marta Lawrence
!!!END: 2021-11-15
